X: 20
T:Morning Star, Bidford, Shakespeare MM
M:4/4
L:1/8
A:Bledington
P:A(AB)4
K:G
P:A
|:BcBG E2FG|ABAF D2GA|BcBA E2AF|D2G2 G4:|
P:B
|:B2B2 d2d2|egfe dcBA|GAGc d2d2|efge d4 |
  B2Bc d2d2|egfe dBG2|ABcA FGAF|D2G2 G4:|
